src/img/icons/gato_feliz.svg

<svg width="44" height="44" viewBox="0 0 44 44" fill="none" xmlns="http://www.w3.org/2000/svg">
<path fill-rule="evenodd" clip-rule="evenodd" d="M22.1316 33.6976C21.9384 33.6999 21.7154 33.8219 21.5943 33.9037C20.5039 34.6406 19.2002 34.7457 17.737 34.1827C16.4283 33.679 17.1434 31.7876 17.9095 32.1147C19.2787 32.6995 19.8868 32.183 21.4163 31.3121C21.6408 31.1841 21.9739 31.1719 22.1127 31.1718C22.1146 31.1718 22.1165 31.1718 22.1184 31.1718C22.2572 31.1719 22.5903 31.1841 22.8148 31.3121C24.3443 32.183 24.9213 32.6212 26.3216 32.1147C27.293 31.7636 27.8406 33.679 26.532 34.1827C25.0686 34.7457 23.7649 34.6406 22.6745 33.9037C22.5536 33.8219 22.3306 33.6999 22.1374 33.6976C22.1353 33.6976 22.1335 33.6976 22.1316 33.6976Z" fill="#272727"/>
<path fill-rule="evenodd" clip-rule="evenodd" d="M21.932 17.5536C23.7226 17.5142 25.0323 17.6596 26.7477 17.9923L30.8288 15.4437C31.2455 15.1834 31.7525 15.1084 32.2272 15.2367C32.7021 15.3651 33.1016 15.6851 33.3292 16.1195C37.2022 23.5089 37.6026 31.1296 33.0261 36.9035C32.318 37.7967 31.4551 38.4869 30.6167 39.13C29.8452 39.7219 28.7365 39.5783 28.1426 38.8095C27.5486 38.0407 27.6929 36.9359 28.4644 36.3441C29.0819 35.8702 29.7358 35.3821 30.2572 34.7242C33.6409 30.4552 33.4452 24.9488 31.0312 19.4665L28.0247 21.3441C27.6385 21.5852 27.1737 21.6681 26.7276 21.5752C25.0609 21.2286 23.8968 21.0545 22.332 21.0643C22.2484 21.0736 22.1633 21.0774 22.0768 21.0746C22.0281 21.0731 21.9799 21.0718 21.932 21.0706C21.884 21.0718 21.8358 21.0731 21.787 21.0746C21.7006 21.0774 21.6155 21.0736 21.532 21.0643C19.9671 21.0545 18.8029 21.2286 17.1365 21.5752C16.6902 21.6681 16.2254 21.5852 15.8392 21.3441L12.8327 19.4665C10.4186 24.9488 10.223 30.4552 13.6067 34.7242C14.1281 35.3821 14.782 35.8702 15.3996 36.3441C16.1712 36.9359 16.3153 38.0407 15.7213 38.8095C15.1273 39.5783 14.0189 39.7219 13.2474 39.13C12.4088 38.4869 11.5459 37.7967 10.8378 36.9035C6.26132 31.1296 6.66168 23.5089 10.5346 16.1195C10.7625 15.6851 11.1619 15.3651 11.6367 15.2367C12.1114 15.1084 12.6184 15.1834 13.0351 15.4437L17.1164 17.9923C18.8316 17.6596 20.1413 17.5142 21.932 17.5536Z" fill="#272727"/>
<path fill-rule="evenodd" clip-rule="evenodd" d="M25.2455 28.5962C24.9967 29.0966 24.3871 29.3016 23.8851 29.0537C23.3828 28.8058 23.1772 28.1983 23.4259 27.6978C23.9176 26.7087 24.9897 26.0919 26.114 26.0307C27.2447 25.9691 28.3955 26.4554 29.0177 27.5614C29.2917 28.0486 29.1173 28.6656 28.6284 28.9386C28.1396 29.2117 27.5204 29.0379 27.2464 28.5509C27.0307 28.1677 26.6164 28.03 26.2249 28.0512C25.8266 28.073 25.4197 28.2458 25.2455 28.5962Z" fill="#272727"/>
<path fill-rule="evenodd" clip-rule="evenodd" d="M16.8257 28.6872C16.577 29.1877 15.9672 29.3926 15.4651 29.1448C14.9629 28.8969 14.7573 28.2894 15.006 27.7889C15.4977 26.7998 16.5698 26.183 17.6941 26.1218C18.8247 26.06 19.9756 26.5463 20.5978 27.6525C20.8718 28.1395 20.6974 28.7567 20.2085 29.0297C19.7196 29.3028 19.1004 29.129 18.8264 28.6418C18.6108 28.2588 18.1967 28.1209 17.805 28.1423C17.4067 28.1641 16.9999 28.3369 16.8257 28.6872Z" fill="#272727"/>
<path fill-rule="evenodd" clip-rule="evenodd" d="M22.0043 5.21491C23.2505 4.06844 25.0616 4.23614 26.0419 5.07179C27.1498 6.01597 27.3099 7.90017 26.2066 9.78739C25.6399 10.8151 24.3645 11.8624 23.1092 12.6555C22.4346 13.082 21.574 13.082 20.8995 12.6555C19.6444 11.8625 18.3694 10.8155 17.8032 9.78985C16.6987 7.90092 16.8585 6.01616 17.9667 5.07179C18.9471 4.23614 20.7579 4.06844 22.0043 5.21491ZM21.3626 6.76806C20.7524 5.72803 19.5426 5.68001 18.9325 6.20012C18.6464 6.44382 18.5266 6.81873 18.5266 7.24526C18.5266 7.79505 18.7226 8.41971 19.0913 9.04797C19.0949 9.05421 19.0985 9.06063 19.1021 9.06706C19.5674 9.9169 20.6568 10.7461 21.6951 11.402C21.8838 11.5213 22.1245 11.5213 22.3132 11.402L22.3134 11.4018C23.3517 10.7459 24.441 9.9169 24.9064 9.06706C24.91 9.06063 24.9136 9.05421 24.9174 9.04797C25.2859 8.41971 25.482 7.79505 25.482 7.24526C25.482 6.81873 25.3621 6.44382 25.0762 6.20012C24.4658 5.68001 23.2562 5.72803 22.6459 6.76806C22.5125 6.9955 22.2683 7.13522 22.0043 7.13522C21.7402 7.13522 21.496 6.9955 21.3626 6.76806Z" fill="#272727"/>
</svg>

<svg xmlns="http://www.w3.org/2000/svg" width="44" height="44" fill="none" viewBox="0 0 44 44"><path fill="#272727" fill-rule="evenodd" d="M22.132 33.698c-.194.002-.417.124-.538.206-1.09.737-2.394.842-3.857.279-1.309-.504-.594-2.395.173-2.068 1.369.584 1.977.068 3.506-.803.225-.128.558-.14.697-.14h.005c.14 0 .472.012.697.14 1.53.871 2.106 1.31 3.507.803.971-.351 1.519 1.564.21 2.068-1.463.563-2.767.458-3.858-.28-.12-.081-.343-.203-.537-.205z" clip-rule="evenodd"/><path fill="#272727" fill-rule="evenodd" d="M21.932 17.554c1.79-.04 3.1.106 4.816.438l4.08-2.548a1.77 1.77 0 0 1 2.501.675c3.873 7.39 4.274 15.01-.303 20.785-.708.893-1.57 1.583-2.41 2.226a1.77 1.77 0 0 1-2.473-.32 1.755 1.755 0 0 1 .321-2.466c.618-.474 1.272-.962 1.793-1.62 3.384-4.269 3.188-9.775.774-15.257l-3.006 1.877a1.77 1.77 0 0 1-1.297.231c-1.667-.346-2.831-.52-4.396-.51q-.126.013-.255.01l-.145-.004q-.072 0-.145.004a2 2 0 0 1-.255-.01c-1.565-.01-2.73.164-4.395.51a1.77 1.77 0 0 1-1.298-.23l-3.006-1.878c-2.414 5.482-2.61 10.988.774 15.257.521.658 1.175 1.146 1.793 1.62.771.592.915 1.697.321 2.465a1.77 1.77 0 0 1-2.474.321c-.838-.643-1.701-1.333-2.41-2.227-4.576-5.773-4.175-13.394-.302-20.783a1.764 1.764 0 0 1 2.5-.676l4.081 2.548c1.716-.332 3.025-.478 4.816-.438" clip-rule="evenodd"/><path fill="#272727" fill-rule="evenodd" d="M25.246 28.596c-.25.5-.859.706-1.36.458a1.01 1.01 0 0 1-.46-1.356c.492-.99 1.564-1.606 2.688-1.667 1.13-.062 2.281.424 2.904 1.53a1.01 1.01 0 0 1-.39 1.378 1.02 1.02 0 0 1-1.382-.388c-.215-.383-.63-.521-1.021-.5-.398.022-.805.195-.98.545" clip-rule="evenodd"/><path fill="#272727" fill-rule="evenodd" d="M16.826 28.687c-.249.5-.859.706-1.36.458a1.01 1.01 0 0 1-.46-1.356c.492-.99 1.564-1.606 2.688-1.667 1.13-.062 2.282.424 2.904 1.53a1.01 1.01 0 0 1-.39 1.378 1.02 1.02 0 0 1-1.382-.388c-.215-.383-.63-.521-1.021-.5-.398.022-.805.195-.98.545" clip-rule="evenodd"/><path fill="#272727" fill-rule="evenodd" d="M22.004 5.215c1.246-1.147 3.058-.979 4.038-.143 1.108.944 1.268 2.828.165 4.715-.567 1.028-1.843 2.075-3.098 2.868a2.07 2.07 0 0 1-2.21 0c-1.255-.792-2.53-1.84-3.096-2.865-1.104-1.89-.945-3.774.164-4.718.98-.836 2.79-1.004 4.037.143m-.641 1.553c-.61-1.04-1.82-1.088-2.43-.568-.287.244-.406.619-.406 1.045 0 .55.196 1.175.564 1.803l.011.02c.465.849 1.555 1.678 2.593 2.334.189.12.43.12.618 0 1.039-.656 2.128-1.485 2.593-2.335l.011-.019c.369-.628.565-1.253.565-1.803 0-.426-.12-.801-.406-1.045-.61-.52-1.82-.472-2.43.568a.744.744 0 0 1-1.283 0" clip-rule="evenodd"/></svg>
